X:1
T:Title
T:Merry-Go-Round Of Life 
T:Music By: Joe Hisaishi Arranged By: Cara
T:Clarinet and Piano Duet
C:Composer
%%score 1 2
L:1/8
M:3/4
K:Bb
V:1 treble transpose=-2 nm="B♭ Clarinet" snm="B♭ Cl."
V:2 treble nm="Piano" snm="Pno."
V:1
[K:Bb]!p!!<(! (=ef ef ef)!<)! |!mf! (d=e de de) | (cd cd cd) |!f! (=B/A/^G- G4) | %4
 z4 !fermata![^G,=B,=E^G]2 |[Q:1/4=84]!f! !tenuto![=B,=E]2 !tenuto![EA]2 !tenuto![Gc]2 | %6
 [FAc=e]4 [FAce]2 | [D=E^Gd]2 [DEGc]2 [DEG=B]2 | [=EAc]6 | z z2 ([A,A] [Cc][=E=e]) | %10
 [Acfa]4 [Acfa]2 | [Ada]2 [Gdg]2 [Fdf]2 | [G=B=eg]6 | z2 z ([=B,=B] [=E=e][Gg]) | %14
 [c=eg=b]4 [cea]2 | [A^dg]2 [Ad^f]2 [Adg]2 | [=B=ea]4 [Adg]2 | [G=B^f]4 [^FA=e]2 | %18
 [=EGd]2 [D^Fc]2 [EGd]2 | [^FA=e]2 [=EGd]2 [^CEA]2 | =B3 =E AB | %21
 z ([=B=b]/[dd']/ [cc'][cc'] [Bb]2) | z ([dd'] [cc'][cc'] [=B=b][Aa] | %23
 [^G^g][Ff] ([=E=e] !fermata![Ee]3)) |[Q:1/4=200] z6 | z6 |!ff! z6 | ([=B,=E]2 [EA]2 [Gc]2) | %28
 [FA=e]4 [FAe]2 | ([Ad]2 [^Gc]2 [G=B]2) | [Ac]6 | ([=EA]2 [Fc]2 [A=e]2) | [Acfa]4 [Aa]2 | %33
 ([=Ba]2 [Ag]2 [Ff]2) | [=B=eg]6 | ([^F=B]2 [A=e]2 [cg]2) | [=B=e=b]4 [Ada]2 | %37
 ([=B^dg]2 [Ac^f]2 [Bdg]2) | [=B=ea]4 [Gg]2 | [G=B^f]4 [G=e]2 | ([Gd]2 [Fc]2 [Gd]2) | %41
 ([=E=e]2 [Dd]2) [A,A]2 |!f!!>(! [=B,=B]6!>)! |!<(! ([=B,=E]2 [EA]2 [Gc]2)!<)! | %44
!ff! [=E=e]4 [Ee]2 | ([Dd]2 [Cc]2 [=B,=B]2) | [Cc]6 | ([=EA]2 [Gc]2 [=B=e]2) | [Acfa]4 [Acfa]2 | %49
 ([Aa]2 [Gg]2 [Ff]2) | [G=B=eg]6 |!mf!!<(! ([^F=B]2 [B=e]2 [Bg]2)!<)!!f! | [=B=e=b]4 ([Ada]2 | %53
 [A^da]2) ([cg][=B^f] [A^e][Bf]) | [da]4 ([dg]2 | [dg]2) ([c^f][=B=e] [A^d][Be]) | %56
 [=E=e]3 [Dd] [Cc]2 | [^D=B]3 [=E^c] [^F^d]2 | [=E^G=B=e]2 ([e=e']2 [^f^f']2 | %59
 [^g^g']2 [=e=e']2 [=B=b]2) | z2 ([^G^g]2 [Aa]2 | [=B=b]2 [^G^g]2) ([B=e]2 | [cf]4 [=B=e]2 | %63
 [Ad]2 [Gc]2 [F=B]2 | [Gc]2 [Ad]2 [=B=e]2 | [DG]4) ([DG]2 | [cf]4 [=B=e]2 | [Ad]3 [Gc] [Ad]2) | %68
 ([=B=e]6 |!f!!<(! [=B=e]4) [e=e']2!<)! |!ff! (3[=e=e'][^f^f'][ee'] [g_e']2 [g=e']2 | %71
 ([g=bg']2 .[^fa^f']2 .[=eg=e']2 | [^f^d']4) [a^f']2 | [A^da=b]4 [db]2 | [=bg']4 [bg']2 | %75
 [=bg']2 [a^f']2 [g=e']2 | ((([^f=b^d'^f']6 | [^f=b^d'^f']6))) | [^G=B=d^g]4 [Bg]2 | %79
 [^G^g]2 [Aa]2 [=B=b]2 | [=eac']2 (6:4:6([=G=g=g'][^F^f^f'][=F=f=f'] [=Ee=e'][_E_e_e'][Ddd']) | %81
 [^C^c^c']2 (6:4:6([Ccc'][=C=c=c'][=B,=B=b] [_B,_B_b][A,Aa][G,Gg]) | [=c^f]4 [cf]2 | %83
 [c^f]2 [=eg]2 [ca]2 | [d^f=b]2 (6:4:6([Aaa'][^G^g^g'][=G=g_g'] [^F^f^f'][=F=f=f'][=E=e=e']) | %85
 [Eee']2!>(! (6:4:6([Ddd'][^C^c^c'][=C=c=c'] [=B,=B=b][A,Aa][=G,=G=g])!>)! | %86
!p! [^F^f]2 [^E^e]2 [Ff]2 | [Aa]2 [Gg]2 [^F^f]2 | [=E=e]2 [^D^d]2 [Ee]2 | [^D^F^d^f]4 [=B=b]2 | %90
 [=F=d]4 [Cc]2 | [=B,=B]4 [A,A]2 |"^rit."!>(! [=B,=E^G]2 (3([dd'][=e=e'][dd'] [cc']2)!>)! | %93
[Q:1/4=184] [=B,=E]2 (3([cc'][dd'][cc'] [=B=b]2) | %94
[Q:1/4=160]!>(! [=B,=E]2 (3([Aa][=B=b][Aa]!pp! [^G^g]2)!>)! | %95
[Q:1/4=148]!<(! [=E^G=B=e]2 [EAea]2 [Ecec']2!<)! |!f![Q:1/4=130] [fac'=e']4 [fc'e']2 | %97
 [DFdfd']2 [=E=ec']2 [Dd=b]2 | [c=ec']6 | %99
 (3([Aa][Aa][Aa]) (3([cc'][cc'][cc']) (3([=e=e'][ee'][ee']) | [Ac=eac'=e'a']4 [Aeac'e'a']2 | %101
 [A=ec'=e'a']2 [Ge=bd'g']2 [Feac'f']2 | [G=e=bd'g']6 | =B2 [B=e]2 [Bg]2 |!>(! [c=e=b]4 [ca]2!>)! | %105
 [=B^dg]2 [Bd^f]2 [Bdg]2 |!mf! [=B=ea]4 [Beg]2 | [G=B^f]4 [GB=e]2 | [Gd]2 [Gc]2 [Gd]2 | %109
!>(! [^FA=e]2 [DAd]2 [A,A]2!>)! | [=B,=B]6 |!mp! [=E=e]2 [Aa]2 [cc']2 | [Fc=e=e']4 [=Eee']2 | %113
 [Fdd']2 [Ccc']2 [=B,=B=b]2 | [=EAcc']6 | [A,A]2 [Cc]2 [=E=e]2 | [Acfa]4 [Acfa]2 | %117
 [Ada]2 [Gcg]2 [F=Bf]2 | [=B=eg]6 | [=B,=B]2 [=E=e]2 [Gg]2 | [=B=b]4 [Aa-]2 | %121
 [Aa]2 ([Gg][^F^f] [=F=f][^F^f]) | [Aa]4 [Gg-]2 | [Gg]2 ([^F^f][=E=e] [_E_e][=E=e]) | %124
 [G=B=e]2 [DFAd]2 [C=EGc]2 | [=B,=B]3 [^C^c] [Ee]2 | z2 [=e=bd']2 [ea=c']2 | %127
"^rit."[Q:1/4=114] z2 [=eac']2 [e^g=b]2 |[Q:1/4=80] z2 [=B=ea]2 [Be^g]2 | %129
[Q:1/4=68] z2 [^G=Bf]2 !fermata![GB=e]2 |[K:C]!p![Q:1/4=65]{DE} F2 _B2 ^c2- |!<(! c6!<)! | %132
[Q:1/4=120] [^F,^F]2 [B,B]2 [Dd]2 |!mf!!mf!!mf! [GB^f]4 [^Ff]2 | [^Ae]2 [Ad]2 [A^c]2 | [^FBd]2 z4 | %136
 [D^FB]2 [FAd]2 [A^c^f]2 | [Bdgb]4 [Bdgb]2 | [Begb]2 [^ceg^c']2 [A,Aa][G,Gg] | [A^c^fa]6 | %140
 [^C^c]2 [^F^f]2 [Aa]2 | [^c^f^c']4 (([cfb-]2 | [^c^fb]2)) [Aa][^G^g] [=G=g][^G^g] | %143
 [^c^fb]4 (([Bea-]2 | [Bea]2)) [^G^g][^F^f] [=F=f][^F^f] | [^FA^f]2 [EGe]2 [DFd]2 | %146
 [^G^c]3 [^D^d] [^E^e]2 |[K:E] (f6 | f6 | f6 | f3) [Gg] [Ff][^E^e] | [FB=df]3 [Ee] [^D^d]2 | %152
 [Cc]3 [Dd] (([^E^e]2 | [^E^e]6)) |"^Rubato" z2[Q:1/4=60] (f=g ef |[Q:1/4=56] =de cd B2 | %156
 c2[Q:1/4=50] !fermata!^A4) | !fermata![F^Acf^ac'f']6 |] %158
V:2
 (Bc Bc Bc) | (AB AB AB) | (GA GA GA) | (^F/=E/(^D D4)) |[K:bass] D,,A,, D,A, !fermata!z2 | %5
!mf! z6 | C,,2 [E,B,D]4 | D,,2 [D,^F,A,]4 | G,,2 [A,B,D]4 | G,2 [B,D]4 | C,,2 [G,B,E]4 | %11
 F,,2 [E,A,C]4 | B,,,2 [F,B,D]4 | B,,2 [F,B,D]4 | =E,,2 [=E,G,B,D]4 | A,,2 [G,A,^C=E]4 | %16
 D,,2 [F,A,D]4 | C,,2 [F,A,D]4 | B,,,2 [A,B,D]4 | A,,,2 [G,A,C]4 | D,,2 [D,G,C]4 | [D,^F,A,C]6 | %22
 [D,^F,A,C]6 | !fermata!z6 |!f! G,,2 [G,B,D]2 [G,B,D]2 | D,,2 [G,B,D]2 [G,B,D]2 | %26
 G,,2 [G,B,D]2 [G,B,D]2 | D,,2 [G,B,D]2 [G,B,D]2 | C,2 [G,B,]2 [G,B,]2 | D,2 [^F,CD]2 [F,CD]2 | %30
 G,,2 [D,G,B,]2 [D,G,B,]2 | G,,2 [G,B,D]2 [G,B,D]2 | C,2 [G,B,E]2 [G,B,E]2 | F,2 [A,CE]2 [A,CE]2 | %34
 B,,2 [F,A,D]2 [F,A,D]2 | F,2 [F,A,D]2 [F,A,D]2 | [=E,,=E,]2 [G,B,D]2 [G,B,D]2 | %37
 A,,2 [=E,G,^C]2 [E,G,C]2 | B,,2 [F,A,D]2 [F,A,D]2 | C,2 [F,A,D]2 [F,A,D]2 | %40
 B,,2 [F,B,D]2 [F,B,D]2 | A,,2 [G,B,D]2 [G,B,D]2 | [D,,D,]2 [^F,A,C]2 [F,A,C]2 | [^F,A,C]6 | %44
 C,2 [G,B,E]2 [G,B,E]2 | D,2 [^F,CD]2 [F,CD]2 | G,,2 [G,B,D]2 [G,B,D]2 | [G,,D,G,]3 [F,,D,F,]3 | %48
 [C,,C,]2 [G,B,E]2 [G,B,E]2 | F,2 [A,CE]2 [A,CE]2 | B,,2 [F,A,D]2 [F,A,D]2 | [F,,F,]2 (CB, A,G,) | %52
 [=E,,=E,]2 [G,B,D]2 [G,B,D]2 | A,,2 [=E,G,]2 [E,G,]2 | D,2 (DA, F,D,) | [C,F,]2 [F,C]2 [A,C]2 | %56
 B,,2 [F,B,]2 [F,B,]2 | A,,2 [=E,G,]2 [E,G,]2 | D,2 [^F,A,D]2 [F,A,D]2 | D,2 [^F,A,D]2 [F,A,D]2 | %60
 D,2 [^F,A,D]2 [F,A,D]2 | D,2 [^F,A,D]2 [F,A,D]2 | !tenuto!=F,2 .[G,B,E]2 .[G,B,E]2 | %63
 F,2 [G,B,D]2 [G,B,D]2 | B,,2 [F,A,D]2 [F,A,D]2 | B,,2 [F,A,D]2 [F,A,D]2 | F,2 [G,B,E]2 [G,B,E]2 | %67
 F,2 [A,CE]2 [A,CE]2 | B,,2 [F,A,D]2 [F,A,D]2 | B,,2 [F,A,D]2 [F,A,D]2 | !tenuto!D,2 (A,_D =D=E) | %71
 [=D,A,](=E FG BF) | =E,2 (G^F GA) | z (=F =ED _DA,) | =D,2 (A,_A, =A,B, | A,G, F,=E, F,D,) | %76
 (=E,F, G,F, E,D, | _D,A,, =B,,=D, =E,G,) | [=D,,D,]2 [^F,^B,^D]2 [F,B,D]2 | %79
 [=D,,=D,]2 [^F,^B,^D]2 [F,B,D]2 | [G,,D,G,]2 [=F,_B,=D]2 [F,B,D]2 | G,,2 [F,B,D]2 [F,B,D]2 | %82
 [C,,C,]2 [=E,B,D]2 [G,B,=E]2 | [C,,C,]2 [=E,B,D]2 [G,C=E]2 | [F,,F,]2 [=E,A,C]2 [E,A,C]2 | %85
 F,,2 [=E,A,C]2 [E,A,C]2 |!mp! =B,,2 [^F,A,]2 [F,A,]2 | =E,2 [^G,=B,]2 [G,B,]2 | %88
 A,,2 [=E,A,]2 [E,A,]2 | A,,2 [=E,A,]2 [E,A,]2 | C,2 [G,C]2 [G,C]2 | C,2 [G,C]2 [G,C]2 | %92
!>(! [D,,D,]2 !arpeggio![^F,CEA]2 [CEB]2!>)! | [D,,D,]2 [^F,CE]2 [F,CE]2 | %94
!>(! [D,,D,]2 [^F,CE]2!p! [F,CE]2!>)! |!<(! [D,,D,]2 [A,D^F]2 [^F,A,D]2!<)! | %96
!mf! [C,,E,]2 [G,B,E]2 [G,B,E]2 | [D,,D,]2 [^F,CD]2 [F,CD]2 | [G,,,G,,]2 [G,B,D]2 [G,B,D]2 | %99
 G,,2 [G,B,D]2 [G,B,D]2 | [C,,C,]2 [G,B,E]2 [G,B,E]2 | [F,,F,]2 [A,CE]2 [A,CE]2 | %102
 [B,,,B,,]2 [D,F,A,]2 [D,F,A,]2 | F,2 [F,A,D]2 [F,A,D]2 |!>(! [=E,,=E,]2 [G,B,D]2 [G,B,D]2!>)! | %105
 A,,2 [=E,G,^C]2 [E,G,C]2 |!mp! D,2 [F,A,D]2 [F,A,D]2 | C,2 [F,A,D]2 [F,A,D]2 | %108
 B,,2 [F,A,D]2 [F,A,D]2 |!>(! A,,2 [=E,G,D]2 [E,G,D]2!>)! | D,2 [^F,A,]2 [F,A,]2 |!p! [D,,D,]6 | %112
 [C,G,B,]6 | [D,^F,C]6 | [G,,D,G,]6 | [G,,D,G,]3 [F,,C,F,]3 | [C,,G,,C,]6 | [F,,C,F,]6 | %118
 [B,,F,A,]6 | [F,A,D]6 | [=E,G,B,D]6 | [A,,=E,G,]6 | [D,F,A,D]6 | [C,F,A,C]6 | [B,,F,B,]6 | %125
 [A,,,A,,]4 [A,,,A,,]2 | [D,,,D,,]4 [D,,,D,,]2 | [D,,,D,,]4 [D,,,D,,]2 | [D,,D,]4 [D,,D,]2 | %129
 [D,,D,]4 [D,,D,]2 |[K:C]!pp! z6 | !////-!E,,3 E,,,3 | !////-!E,,3 E,,,3 |!p! [D,,D,]6 | [E,,E,]6 | %135
 [A,,E,A,]6 | [A,,E,A,]3 [G,,D,G,]3 | [D,,D,]6 | [G,,G,]6 | [C,,C,]6 | C,6 | [^F,,^F,]6 | %142
 [B,,,B,,]6 | [E,,E,]6 | [D,,D,]6 | [C,,C,]6 | !////-!B,,3 B,,,3 |[K:E] (([E,,,E,,]4 [B,,,B,,]2)) | %148
 [E,,E,]4 B,,2 | [E,,E,]4 B,,2 | [E,,E,]6 | [D,,D,]6 | [B,,,B,,]6 | !////-!B,,3 B,,,3 | %154
[K:treble] z2 (=cB AG | =GF EC (=C2 | C2) !fermata!B,4) | %157
[K:bass] !arpeggio!!fermata![E,,B,,E,G,B,]6 |] %158

